X: 16370
T: Gurteen Cross, The
R: polka
M: 2/4
K: Gmajor
|:uD|v"G"GB "D"vAu(B/A/)|"G" vGu(g "C"e/f/g/e/)|"G" vdu(B B/A/G/A/)|"D" vB>u(A G/F/E/D/)|
"G"vGB "D"vAu(B/A/)|"G"vGu(g "C"e/f/g/e/)|"G" vdB "D"vAu(B/A/)|"G" vG3:|
|:uA|"G" vBud vg>u(d|Bd) vg>u(d|Bd) vge|"D"vf2 u(f>g)|
"C"v(a/b/a/g/) "D"u(f/g/f/e/)|"G"v(dB) "C"u(AG/A/)|"G"vBu(e "D"d/B/A/B/)|"G"vG2 G:|

